other/creditagricole_autobank.svg

<?xml version="1.0" encoding="UTF-8"?><svg id="b" xmlns="http://www.w3.org/2000/svg" viewBox="0 0 48 48"><defs><style>.c{fill:none;stroke:#fff;stroke-linecap:round;stroke-linejoin:round;}</style></defs><line class="c" x1="9.325" y1="29.917" x2="39.405" y2="29.917"/><path class="c" d="m21.132,10.405c-7.16.885-12.178,3.509-12.178,9.183,0,3.462,3.563,5.161,6.844,5.161,6.804,0,17.15-6.567,23.978-10.416"/><polyline class="c" points="21.187 20.559 26.633 10.405 34.465 25.452"/><path class="c" d="m39.776,9.259c-2.313,1.493-4.715,2.845-7.192,4.047"/><line class="c" x1="7.776" y1="37.068" x2="5.546" y2="37.068"/><polyline class="c" points="4.988 38.741 6.661 33.784 8.334 38.741"/><line class="c" x1="33.407" y1="37.068" x2="31.177" y2="37.068"/><polyline class="c" points="30.62 38.741 32.292 33.784 33.965 38.741"/><line class="c" x1="14.6263" y1="33.784" x2="17.8493" y2="33.784"/><line class="c" x1="16.2383" y1="38.741" x2="16.2383" y2="33.784"/><path class="c" d="m9.833,33.785v3.284c0,.929.744,1.673,1.611,1.673s1.611-.744,1.611-1.673v-3.284"/><line class="c" x1="40.41" y1="33.784" x2="40.41" y2="38.741"/><line class="c" x1="40.41" y1="37.006" x2="43.012" y2="33.784"/><line class="c" x1="43.012" y1="38.741" x2="41.03" y2="36.263"/><polyline class="c" points="35.379 38.741 35.379 33.784 38.663 38.741 38.663 33.784"/><path class="c" d="m20.616,38.742c-.931,0-1.612-.744-1.612-1.611v-1.673c0-.929.744-1.673,1.612-1.673.929,0,1.672.744,1.672,1.673v1.611c0,.929-.743,1.673-1.672,1.673Z"/><path class="c" d="m28.161,36.264c.682,0,1.24.558,1.24,1.239,0,.682-.558,1.239-1.24,1.239h-2.044v-4.957h2.044c.682,0,1.24.558,1.24,1.239s-.558,1.24-1.24,1.24Z"/><line class="c" x1="28.161" y1="36.263" x2="26.117" y2="36.263"/></svg>

<?xml version="1.0" encoding="utf-8"?>
<svg viewBox="0 0 48 48" xmlns="http://www.w3.org/2000/svg">
  <defs>
    <style>.a{fill:none;stroke:#fff;stroke-linecap:round;stroke-linejoin:round;}</style>
  </defs>
  <line class="a" x1="9.325" y1="29.917" x2="39.405" y2="29.917" style=""/>
  <path class="a" d="M 21.132 10.405 C 13.972 11.29 8.954 13.914 8.954 19.588 C 8.954 23.05 12.517 24.749 15.798 24.749 C 22.602 24.749 32.948 18.182 39.776 14.333" style=""/>
  <polyline class="a" points="21.187 20.559 26.633 10.405 34.465 25.452" style=""/>
  <path class="a" d="M 39.776 9.259 C 37.463 10.752 35.061 12.104 32.584 13.306" style=""/>
  <line class="st5" x1="7.776" y1="37.068" x2="5.546" y2="37.068" style="fill: none; stroke: rgb(255, 255, 255); stroke-linecap: round; stroke-linejoin: round; stroke-miterlimit: 10;"/>
  <polyline class="st5" points="4.988 38.741 6.661 33.784 8.334 38.741" style="fill: none; stroke: rgb(255, 255, 255); stroke-linecap: round; stroke-linejoin: round; stroke-miterlimit: 10;"/>
  <line class="st5" x1="33.407" y1="37.068" x2="31.177" y2="37.068" style="fill: none; stroke: rgb(255, 255, 255); stroke-linecap: round; stroke-linejoin: round; stroke-miterlimit: 10;"/>
  <polyline class="st5" points="30.62 38.741 32.292 33.784 33.965 38.741" style="fill: none; stroke: rgb(255, 255, 255); stroke-linecap: round; stroke-linejoin: round; stroke-miterlimit: 10;"/>
  <line class="st5" x1="14.392" y1="33.784" x2="17.615" y2="33.784" style="fill: none; stroke: rgb(255, 255, 255); stroke-linecap: round; stroke-linejoin: round; stroke-miterlimit: 10;"/>
  <line class="st5" x1="16.004" y1="38.741" x2="16.004" y2="33.784" style="fill: none; stroke: rgb(255, 255, 255); stroke-linecap: round; stroke-linejoin: round; stroke-miterlimit: 10;"/>
  <path class="st5" d="M 9.833 33.785 L 9.833 37.069 C 9.833 37.998 10.577 38.742 11.444 38.742 C 12.311 38.742 13.055 37.998 13.055 37.069 L 13.055 33.785" style="fill: none; stroke: rgb(255, 255, 255); stroke-linecap: round; stroke-linejoin: round; stroke-miterlimit: 10;"/>
  <line class="st5" x1="40.41" y1="33.784" x2="40.41" y2="38.741" style="fill: none; stroke: rgb(255, 255, 255); stroke-linecap: round; stroke-linejoin: round; stroke-miterlimit: 10;"/>
  <line class="st5" x1="40.41" y1="37.006" x2="43.012" y2="33.784" style="fill: none; stroke: rgb(255, 255, 255); stroke-linecap: round; stroke-linejoin: round; stroke-miterlimit: 10;"/>
  <line class="st5" x1="43.012" y1="38.741" x2="41.03" y2="36.263" style="fill: none; stroke: rgb(255, 255, 255); stroke-linecap: round; stroke-linejoin: round; stroke-miterlimit: 10;"/>
  <polyline class="st5" points="35.379 38.741 35.379 33.784 38.663 38.741 38.663 33.784" style="fill: none; stroke: rgb(255, 255, 255); stroke-linecap: round; stroke-linejoin: round; stroke-miterlimit: 10;"/>
  <path class="st5" d="M 20.616 38.742 C 19.685 38.742 19.004 37.998 19.004 37.131 L 19.004 35.458 C 19.004 34.529 19.748 33.785 20.616 33.785 C 21.545 33.785 22.288 34.529 22.288 35.458 L 22.288 37.069 C 22.288 37.998 21.545 38.742 20.616 38.742 Z" style="fill: none; stroke: rgb(255, 255, 255); stroke-linecap: round; stroke-linejoin: round; stroke-miterlimit: 10;"/>
  <path class="st5" d="M 28.161 36.264 C 28.843 36.264 29.401 36.822 29.401 37.503 C 29.401 38.185 28.843 38.742 28.161 38.742 L 26.117 38.742 L 26.117 33.785 L 28.161 33.785 C 28.843 33.785 29.401 34.343 29.401 35.024 C 29.401 35.705 28.843 36.264 28.161 36.264 Z" style="fill: none; stroke: rgb(255, 255, 255); stroke-linecap: round; stroke-linejoin: round; stroke-miterlimit: 10;"/>
  <line class="st5" x1="28.161" y1="36.263" x2="26.117" y2="36.263" style="fill: none; stroke: rgb(255, 255, 255); stroke-linecap: round; stroke-linejoin: round; stroke-miterlimit: 10;"/>
</svg>
